client/resources/iconsets/breeze/src/svg/16x16/icon_sendas.svg

<svg xmlns="http://www.w3.org/2000/svg" width="16" height="16" viewBox="0 0 16 16">
 <path style="fill:#6d6d70"
       d="M 13.5 0 C 12.669 0 12 0.67 12 1.5 C 12 2.331 12.669 3 13.5 3 C 14.331 3 15 2.331 15 1.5 C 15 0.66900001 14.331 0 13.5 0 z M 1 3 C 0.446 3 0 3.446 0 4 L 0 14 C 0 14.554 0.446 15 1 15 L 15 15 C 15.554 15 16 14.554 16 14 L 16 8 L 14 8 L 14 13 L 2 13 L 2 6.1523438 L 7.4003906 10.300781 C 7.755798 10.567024 8.244202 10.567024 8.60 10.300781 L 11.644531 8 L 10 8 L 10 6.75 L 8 8.25 L 3.6679688 5 L 10.21875 5 C 10.553413 4.2501044 11.243923 3.7004565 12.052734 3.3945312 C 11.895794 3.275167 11.750045 3.1425342 11.619141 3 L 1 3 z M 13 4 C 11.892 4 11 4.892 11 6 L 11 7 L 16 7 L 16 6 C 16 4.892 15.108 4 14 4 L 13 4 z "
       />
</svg>

<svg xmlns="http://www.w3.org/2000/svg" width="16" height="16"><path d="M13.5 0A1.5 1.5 0 0 0 12 1.5c0 .831.669 1.5 1.5 1.5S15 2.331 15 1.5 14.331 0 13.5 0zM1 3a1 1 0 0 0-1 1v10a1 1 0 0 0 1 1h14a1 1 0 0 0 1-1V8h-2v5H2V6.152l5.4 4.148a1 1 0 0 0 1.2 0L11.645 8H10V6.75l-2 1.5L3.668 5h6.551c.335-.75 1.025-1.3 1.834-1.605A3.31 3.31 0 0 1 11.619 3H1zm12 1c-1.108 0-2 .892-2 2v1h5V6c0-1.108-.892-2-2-2h-1z" fill="#6d6d70"/></svg>
